packages/symbols/svgs/outline/hand-pointer-outline.svg

<svg width="24" height="24" viewBox="0 0 24 24" fill="none" xmlns="http://www.w3.org/2000/svg">
<g clip-path="url(#clip0_1150_5550)">
<path fill-rule="evenodd" clip-rule="evenodd" d="M9.49593 0.0398902C7.62641 -0.262992 6 1.17739 6 3.00002V10H5C3.34272 10 2 11.3427 2 13V15.895C2 17.4843 2.54139 19.0265 3.53406 20.2676L6.21906 23.6246C6.40883 23.8619 6.69618 24 7 24H20C20.4936 24 20.9133 23.6399 20.9884 23.1521L22.5444 13.0379C22.8736 10.8961 21.438 8.88108 19.3066 8.49409L12 7.16546V3.10702C12 1.69588 11.0334 0.290144 9.49593 0.0398902ZM8 3.00002C8 2.39274 8.53942 1.91118 9.17577 2.0141C9.60411 2.08407 10 2.52635 10 3.10702V8.00002C10 8.4833 10.3456 8.89742 10.8211 8.98389L18.9494 10.4619C20.0139 10.6551 20.7324 11.662 20.5676 12.7341L19.1421 22H7.48069L5.09594 19.0184C4.38661 18.1315 4 17.0298 4 15.895V13C4 12.4473 4.44728 12 5 12H6V14C6 14.5523 6.44772 15 7 15C7.55228 15 8 14.5523 8 14V11V11V3.00002Z" fill="black"/>
<path fill-rule="evenodd" clip-rule="evenodd" d="M13 14C13 13.4477 12.5523 13 12 13C11.4477 13 11 13.4477 11 14V19C11 19.5523 11.4477 20 12 20C12.5523 20 13 19.5523 13 19V14ZM17 14C17 13.4477 16.5523 13 16 13C15.4477 13 15 13.4477 15 14V19C15 19.5523 15.4477 20 16 20C16.5523 20 17 19.5523 17 19V14Z" fill="black"/>
</g>
<defs>
<clipPath id="clip0_1150_5550">
<rect width="24" height="24" fill="white"/>
</clipPath>
</defs>
</svg>

<svg width="24" height="24" viewBox="0 0 24 24" xmlns="http://www.w3.org/2000/svg"><g clip-path="url(#a)" fill-rule="evenodd" clip-rule="evenodd"><path d="M9.496.04A3.002 3.002 0 0 0 6 3v7H5a3 3 0 0 0-3 3v2.895a7 7 0 0 0 1.534 4.373l2.685 3.357A1 1 0 0 0 7 24h13a1 1 0 0 0 .988-.848l1.556-10.114a4 4 0 0 0-3.237-4.544L12 7.165V3.107C12 1.696 11.033.29 9.496.04ZM8 3c0-.607.54-1.089 1.176-.986.428.07.824.512.824 1.093V8a1 1 0 0 0 .821.984l8.128 1.478a2 2 0 0 1 1.619 2.272L19.142 22H7.481l-2.385-2.982A5.001 5.001 0 0 1 4 15.895V13a1 1 0 0 1 1-1h1v2a1 1 0 1 0 2 0V3Z"/><path d="M13 14a1 1 0 1 0-2 0v5a1 1 0 1 0 2 0v-5Zm4 0a1 1 0 1 0-2 0v5a1 1 0 1 0 2 0v-5Z"/></g><defs><clipPath id="a"><path fill="#fff" d="M0 0h24v24H0z"/></clipPath></defs></svg>
